Pods/ProtonCore-UIFoundations/libraries/UIFoundations/Sources/Assets.xcassets/Images/IconSet/ic-star-filled.imageset/ic-star-filled.svg

<svg width="24" height="24" viewBox="0 0 24 24" fill="none" xmlns="http://www.w3.org/2000/svg">
<path d="M11.2523 2.68158C11.5751 2.10614 12.4249 2.10614 12.7477 2.68158L15.5207 7.62541C15.6432 7.84379 15.8601 7.99706 16.1116 8.04284L21.8043 9.07937C22.4669 9.20001 22.7296 9.98583 22.2664 10.4621L18.2875 14.5541C18.1118 14.7348 18.0289 14.9828 18.0618 15.2295L18.8071 20.814C18.8938 21.464 18.2063 21.9496 17.5973 21.6685L12.3652 19.2537C12.1341 19.147 11.8659 19.147 11.6348 19.2537L6.40266 21.6685C5.79367 21.9496 5.10617 21.464 5.19292 20.814L5.93819 15.2295C5.97111 14.9828 5.88824 14.7348 5.71248 14.5541L1.73357 10.4621C1.27045 9.98583 1.53305 9.20001 2.19565 9.07937L7.88839 8.04284C8.13985 7.99706 8.35681 7.84379 8.4793 7.62541L11.2523 2.68158Z" fill="#0C0C14"/>
</svg>

<svg xmlns="http://www.w3.org/2000/svg" width="24" height="24" viewBox="0 0 24 24">
  <g class="ic-star-filled">
    <path d="M11.252 2.682c.323-.576 1.173-.576 1.496 0l2.773 4.943a.85.85 0 0 0 .59.418l5.693 1.036c.663.121.926.907.462 1.383l-3.978 4.092a.814.814 0 0 0-.226.675l.745 5.585c.087.65-.6 1.136-1.21.855l-5.232-2.415a.873.873 0 0 0-.73 0l-5.232 2.415c-.61.28-1.297-.205-1.21-.855l.745-5.585a.813.813 0 0 0-.226-.675l-3.978-4.092c-.464-.476-.2-1.262.462-1.383l5.692-1.036a.85.85 0 0 0 .591-.418l2.773-4.943Z" class="Icon"/>
  </g>
</svg>
